X: 34146
T: Reel En Sol
R: reel
M: 4/4
K: Gmajor
G2BG cGBG|DB,DF GABG|cGBG DB,DF|
G2BG cGBG|AcAF G2AB|1 cedc BGAF:|2 cedc BGAB||
c2e e2e2 B|AGAB c2ee-|edcA BGAB|
c2e e2e2B|AGABc2 cB|cdef gedc|1 BGAB:|2 BGAF||

